X:6
T:Duke of Yorks Cotillion. GS.006
M:6/8
L:1/8
Q:3/8=120
S:George Spencer m/s, Leeds,1831
R:.Cotillion
O:England
A:Leeds
H:1831
Z:vmp.Cherri Graebe
K:D major
A>BA d2 f | e2ee2f | def B2 e | (d3c2) A |!
A>BA d2 f | e2ee2b | afd â€œtrâ€e2 f | (d3d3) :|!
|:Bcd A2A | B2B A2A | BcdA2A | B3 â€œD.C.â€A2 ||!
f/2g/2 | a2a f2d | â€œtrâ€e>de dfg | a2a f2d | â€œtrâ€f3â€³D.C.â€e2 |]

